icons/src/scalable/default/devices/drive-harddisk-ieee1394-symbolic.svg

<svg xmlns="http://www.w3.org/2000/svg" viewBox="0 0 16 16">
  <defs id="defs3051">
    <style type="text/css" id="current-color-scheme">
      .ColorScheme-Text {
        color:#4d4d4d;
      }
      </style>
  </defs>
 <path 
     style="fill:#bebebe;fill-opacity:1;stroke:none" 
     class="ColorScheme-Text"
     d="M 2.953125 0.5 C 2.6041342 0.5 2.2699282 0.63757868 2.0449219 0.87304688 C 1.8199156 1.1085151 1.7058541 1.4160686 1.6738281 1.7363281 L 1.6738281 1.7246094 L 0.38867188 11.861328 A 0.47594415 0.47594415 0 0 0 0.38671875 11.921875 L 0.38476562 11.921875 L 0.38671875 11.945312 A 0.47594415 0.47594415 0 0 0 0.39257812 12.003906 L 0.62304688 14.736328 C 0.67063652 15.127381 0.95379094 15.441406 1.4296875 15.441406 L 14.617188 15.441406 C 15.093083 15.441406 15.378192 15.127381 15.425781 14.736328 L 15.613281 11.939453 L 15.615234 11.921875 L 15.613281 11.921875 A 0.47594415 0.47594415 0 0 0 15.611328 11.861328 L 14.326172 1.7246094 A 0.47594415 0.47594415 0 0 0 14.320312 1.6914062 C 14.262056 1.4001182 14.157113 1.1147632 13.943359 0.88085938 C 13.729606 0.64695564 13.395866 0.5 13.046875 0.5 L 2.953125 0.5 z M 2.953125 1.4511719 L 13.046875 1.4511719 C 13.17378 1.4511719 13.195001 1.4718034 13.242188 1.5234375 C 13.288758 1.5743985 13.3477 1.6925336 13.384766 1.8730469 L 14.646484 11.818359 L 14.583984 11.921875 L 11.332031 11.921875 L 10.855469 11.921875 L 1.3476562 11.921875 L 1.34375 11.904297 L 2.6191406 1.8457031 A 0.47594415 0.47594415 0 0 0 2.6210938 1.8320312 C 2.6366556 1.6763944 2.6865299 1.5813197 2.734375 1.53125 C 2.7822201 1.4811803 2.8262192 1.4511719 2.953125 1.4511719 z M 5.3964844 2.984375 L 3.8964844 4.1953125 L 4.3964844 4.5976562 L 5.8984375 3.3867188 L 5.3964844 2.984375 z M 10.402344 2.984375 L 8.9003906 4.1953125 L 10.402344 5.4042969 L 11.904297 4.1953125 L 10.402344 2.984375 z M 6.3984375 3.7910156 L 4.8964844 5.0019531 L 5.3964844 5.4042969 L 6.8984375 4.1953125 L 6.3984375 3.7910156 z M 7.9023438 4.7851562 C 6.925108 4.7851562 6.1328125 5.4230189 6.1328125 6.2109375 C 6.1328125 6.9988561 6.925108 7.6386719 7.9023438 7.6386719 C 8.8795795 7.6386719 9.671875 6.9988561 9.671875 6.2109375 C 9.671875 5.4230189 8.8795795 4.7851562 7.9023438 4.7851562 z M 7.9023438 5.3554688 C 8.488688 5.3554688 8.9628906 5.7381841 8.9628906 6.2109375 C 8.9628906 6.6836909 8.488688 7.0664062 7.9023438 7.0664062 C 7.3159995 7.0664062 6.8398438 6.6836909 6.8398438 6.2109375 C 6.8398438 5.7381841 7.3159995 5.3554688 7.9023438 5.3554688 z M 6.8398438 8.2089844 L 6.8398438 8.7792969 L 8.9628906 8.7792969 L 8.9628906 8.2089844 L 6.8398438 8.2089844 z M 6.8398438 9.3496094 L 6.8398438 9.9199219 L 8.9628906 9.9199219 L 8.9628906 9.3496094 L 6.8398438 9.3496094 z "
     />
</svg>

<svg version="1.1" viewBox="0 0 16 16" xmlns="http://www.w3.org/2000/svg">
 <path d="m2.9531 0.5c-0.34899 0-0.6832 0.13758-0.9082 0.37305-0.22501 0.23547-0.33907 0.54302-0.37109 0.86328v-0.011719l-1.2852 10.137a0.47594 0.47594 0 0 0-0.0019531 0.060547h-0.0019531l0.0019531 0.023437a0.47594 0.47594 0 0 0 0.0058594 0.058594l0.23047 2.7324c0.04759 0.39105 0.33074 0.70508 0.80664 0.70508h13.188c0.4759 0 0.761-0.31402 0.80859-0.70508l0.1875-2.7969 0.001953-0.017578h-0.001953a0.47594 0.47594 0 0 0-0.001953-0.060547l-1.2852-10.137a0.47594 0.47594 0 0 0-0.00586-0.033203c-0.058256-0.29129-0.1632-0.57664-0.37695-0.81055-0.21375-0.2339-0.54749-0.38086-0.89648-0.38086h-10.094zm0 0.95117h10.094c0.1269 0 0.14813 0.020632 0.19531 0.072266 0.04657 0.050961 0.10551 0.1691 0.14258 0.34961l1.2617 9.9453-0.0625 0.10352h-3.252-0.47656-9.5078l-0.0039062-0.017578 1.2754-10.059a0.47594 0.47594 0 0 0 0.0019532-0.013672c0.015562-0.15564 0.065436-0.25071 0.11328-0.30078s0.091844-0.080078 0.21875-0.080078zm2.4434 1.5332-1.5 1.2109 0.5 0.40234 1.502-1.2109-0.50195-0.40234zm5.0059 0-1.502 1.2109 1.502 1.209 1.502-1.209-1.502-1.2109zm-4.0039 0.80664-1.502 1.2109 0.5 0.40234 1.502-1.209-0.5-0.4043zm1.5039 0.99414c-0.97724 0-1.7695 0.63786-1.7695 1.4258s0.7923 1.4277 1.7695 1.4277c0.97724 0 1.7695-0.63982 1.7695-1.4277s-0.7923-1.4258-1.7695-1.4258zm0 0.57031c0.58634 0 1.0605 0.38272 1.0605 0.85547s-0.4742 0.85547-1.0605 0.85547c-0.58634 0-1.0625-0.38272-1.0625-0.85547s0.47616-0.85547 1.0625-0.85547zm-1.0625 2.8535v0.57031h2.123v-0.57031h-2.123zm0 1.1406v0.57031h2.123v-0.57031h-2.123z" fill="#bebebe"/>
</svg>
